X: 15602
T: Go Mauve
R: reel
M: 4/4
K: Adorian
|:~E2 E2 EFGE|~F2 F2 FGAF|~G2 G2 GABG|A2 BA G2 F2|
~E2 E2 EFGE|~F2 F2 FGAF|~G2 G2 GABG|dcBA cBAG:|
EGBG E2 GB|d z ^cB F3 A|AGFE D2 AG|FEDE FGED|
EGBG E2 GB|d z ^cB F3 A|AGFE DEFG|1 E2 ED E2 ED:|2 E6 D2||

